Numix-GalliumOS/16/mimetypes/text-x-vala.svg

<?xml version="1.0" encoding="UTF-8" standalone="no"?>
<svg
   xmlns:dc="http://purl.org/dc/elements/1.1/"
   xmlns:cc="http://creativecommons.org/ns#"
   xmlns:rdf="http://www.w3.org/1999/02/22-rdf-syntax-ns#"
   xmlns:svg="http://www.w3.org/2000/svg"
   xmlns="http://www.w3.org/2000/svg"
   xmlns:sodipodi="http://sodipodi.sourceforge.net/DTD/sodipodi-0.dtd"
   xmlns:inkscape="http://www.inkscape.org/namespaces/inkscape"
   width="16"
   height="16"
   viewBox="0 0 16 16"
   id="svg2"
   version="1.1"
   inkscape:version="0.91 r13725"
   sodipodi:docname="text-x-vala0b.svg">
  <metadata
     id="metadata30">
    <rdf:RDF>
      <cc:Work
         rdf:about="">
        <dc:format>image/svg+xml</dc:format>
        <dc:type
           rdf:resource="http://purl.org/dc/dcmitype/StillImage" />
        <dc:title />
      </cc:Work>
    </rdf:RDF>
  </metadata>
  <defs
     id="defs28" />
  <sodipodi:namedview
     pagecolor="#ffffff"
     bordercolor="#666666"
     borderopacity="1"
     objecttolerance="10"
     gridtolerance="10"
     guidetolerance="10"
     inkscape:pageopacity="0"
     inkscape:pageshadow="2"
     inkscape:window-width="1366"
     inkscape:window-height="713"
     id="namedview26"
     showgrid="false"
     inkscape:zoom="45.254834"
     inkscape:cx="8.3464674"
     inkscape:cy="7.3778651"
     inkscape:window-x="0"
     inkscape:window-y="28"
     inkscape:window-maximized="1"
     inkscape:current-layer="svg2">
    <inkscape:grid
       type="xygrid"
       id="grid3336" />
  </sodipodi:namedview>
  <path
     style="fill:#2d2d2d;fill-opacity:1"
     d="M 2.667969,-4.4634e-4 C 2.324219,-4.4634e-4 2,0.33781166 2,0.6964464 L 2,15.303108 C 2,15.641365 2.34375,16 2.667969,16 l 10.664062,0 C 13.65625,16 14,15.641365 14,15.303108 L 14,3.9995535 10,-4.4634e-4 z"
     id="path4-9"
     inkscape:connector-curvature="0"
     sodipodi:nodetypes="ssssssccs" />
  <path
     style="fill:#000000;fill-opacity:0.19599998"
     d="m 10.583223,3.3315845 0.0154,0.01953 0.04005,-0.01953 z m 0.02978,0.667969 3.387,3.664062 0,-3.664062 z"
     id="path6-9"
     inkscape:connector-curvature="0"
     sodipodi:nodetypes="cccccccc" />
  <path
     style="fill:#ffffff;fill-opacity:0.39200003"
     d="m 10,-4.4634e-4 3.996396,3.99999984 -3.383784,0 C 10.313513,3.9995535 10,3.6824365 10,3.3833375 z"
     id="path8-0"
     inkscape:connector-curvature="0"
     sodipodi:nodetypes="ccssc" />
  <path
     style="fill:#ffffff;fill-opacity:1;fill-rule:nonzero;stroke:none"
     d="M 10.260958,6.2000023 C 9.7514045,6.2000036 9.4614191,6.3569613 9.2308604,6.6747105 8.7231563,7.4769413 8.503437,8.3746643 8.2706962,9.2064873 8.071182,10.166787 7.792027,11.145668 7.1158531,11.185415 6.9127907,11.18531 6.7653491,11.075978 6.5715081,11.015454 l 0.1814483,0.271542 c 0.1678253,0.247923 0.4440849,0.580448 0.8202978,0.683737 0.1881062,0.05166 0.4010129,0.03929 0.6180584,-0.07225 C 9.1556788,11.39112 9.5761767,9.1592297 10.088959,7.6905477 10.359033,6.8342919 10.645325,6.9835033 10.91097,7.3600019 10.96421,7.0992857 11.00098,6.9521859 10.99998,6.7762957 11.00098,6.3356781 10.673334,6.2000024 10.260958,6.200001 Z M 6.2312924,7.0263462 6.1103269,7.1787217 c 0.5969534,0.8889119 0.4687153,2.1166369 0.5273341,3.0103893 0.011223,0.172657 0.046542,0.324124 0.1228557,0.443457 0.076313,0.119323 0.1996487,0.201024 0.347776,0.214888 0.3560854,-0.01491 0.4997396,-0.40399 0.6121539,-0.806814 C 7.523825,9.9889193 7.4994975,9.8171182 7.4503984,9.6870561 7.3710078,9.4503034 7.2860558,9.0574033 7.2122475,8.4289821 7.1291287,7.7584632 6.6639527,7.2750262 6.2312924,7.0263462 Z M 5,7.5303573 c 0.020671,0.3562656 0.1953635,0.6407391 0.4355658,0.9748129 l 0,-0.3125651 c 0.00885,-0.3238763 0.1783464,-0.3533832 0.3326553,-0.3008442 0.059572,0.028288 0.1294511,0.081247 0.1890087,0.1387007 L 6.1859304,8.2531641 C 6.1571509,8.1099703 6.1184121,7.9552392 6.0876452,7.8194801 l 0,-0.00196 C 5.8615753,6.9826568 5,7.0794768 5,7.5303573 Z"
     id="path57"
     inkscape:connector-curvature="0"
     sodipodi:nodetypes="cccccccccccccccscccccccccccccc" />
</svg>

<svg xmlns="http://www.w3.org/2000/svg" viewBox="0 0 16 16">
 <path d="m 2.668 0 c -0.344 0 -0.668 0.338 -0.668 0.697 l 0 14.607 c 0 0.338 0.344 0.697 0.668 0.697 l 10.664 0 c 0.324 0 0.668 -0.359 0.668 -0.697 l 0 -11.304 -4 -4 z" style="fill:#2d2d2d;fill-opacity:1"/>
 <path d="m 10.583 3.332 0.015 0.02 0.04 -0.02 z m 0.03 0.668 3.387 3.664 0 -3.664 z" style="fill:#000;fill-opacity:0.196"/>
 <path d="m 10 0 3.996 4 -3.384 0 c -0.299 0 -0.613 -0.317 -0.613 -0.616 z" style="fill:#fff;fill-opacity:0.392"/>
 <path d="m 10.261 6.2 c -0.51 0 -0.8 0.157 -1.03 0.475 -0.508 0.802 -0.727 1.7 -0.96 2.532 -0.2 0.96 -0.479 1.939 -1.155 1.979 -0.203 0 -0.351 -0.109 -0.544 -0.17 l 0.181 0.272 c 0.168 0.248 0.444 0.58 0.82 0.684 0.188 0.052 0.401 0.039 0.618 -0.072 c 0.964 -0.507 1.385 -2.739 1.898 -4.208 0.27 -0.856 0.556 -0.707 0.822 -0.331 0.053 -0.261 0.09 -0.408 0.089 -0.584 0.001 -0.441 -0.327 -0.576 -0.739 -0.576 m -4.03 0.826 -0.121 0.152 c 0.597 0.889 0.469 2.117 0.527 3.01 0.011 0.173 0.047 0.324 0.123 0.443 0.076 0.119 0.2 0.201 0.348 0.215 0.356 -0.015 0.5 -0.404 0.612 -0.807 c -0.197 -0.052 -0.221 -0.224 -0.27 -0.354 -0.079 -0.237 -0.164 -0.63 -0.238 -1.258 -0.083 -0.671 -0.548 -1.154 -0.981 -1.403 m -1.231 0.504 c 0.021 0.356 0.195 0.641 0.436 0.975 l 0 -0.313 c 0.009 -0.324 0.178 -0.353 0.333 -0.301 0.06 0.028 0.129 0.081 0.189 0.139 l 0.229 0.223 c -0.029 -0.143 -0.068 -0.298 -0.098 -0.434 l 0 -0.002 c -0.226 -0.835 -1.088 -0.738 -1.088 -0.287" style="fill:#fff;fill-opacity:1;stroke:none;fill-rule:nonzero"/>
</svg>
